raw-svg/building-columns.svg

<svg fill="none" height="24" viewBox="0 0 24 24" width="24" xmlns="http://www.w3.org/2000/svg"><path clip-rule="evenodd" d="m12.1214 4.92538c-.0755-.04195-.1673-.04195-.2428 0l-8.51438 4.7302c-.36209.20116-.81869.0707-1.01985-.29139-.20116-.36208-.07071-.81869.29138-1.01985l8.51435-4.73019c.5286-.29364 1.1712-.29364 1.6998 0l8.5143 4.73019c.3621.20116.4926.65777.2914 1.01985-.2012.36209-.6578.49255-1.0198.29139zm-2.87142 4.07458c0-.41421.33579-.75.75-.75h4.00002c.4142 0 .75.33579.75.75 0 .41422-.3358.75-.75.75h-4.00002c-.41421 0-.75-.33578-.75-.75zm-3.24999 2.25004c.41421 0 .75.3357.75.75v5c0 .4142-.33579.75-.75.75s-.75-.3358-.75-.75v-5c0-.4143.33579-.75.75-.75zm4 0c.41421 0 .75001.3357.75001.75v5c0 .4142-.3358.75-.75001.75s-.75-.3358-.75-.75v-5c0-.4143.33579-.75.75-.75zm4.00001 0c.4142 0 .75.3357.75.75v5c0 .4142-.3358.75-.75.75s-.75-.3358-.75-.75v-5c0-.4143.3358-.75.75-.75zm4 0c.4142 0 .75.3357.75.75v5c0 .4142-.3358.75-.75.75s-.75-.3358-.75-.75v-5c0-.4143.3358-.75.75-.75zm-13.75001 8.75c0-.4143.33579-.75.75-.75h14.00001c.4142 0 .75.3357.75.75 0 .4142-.3358.75-.75.75h-14.00001c-.41421 0-.75-.3358-.75-.75z" fill="#000" fill-rule="evenodd"/></svg>

<svg width="24" height="24" viewBox="0 0 24 24" fill="none" xmlns="http://www.w3.org/2000/svg">
<path fill-rule="evenodd" clip-rule="evenodd" d="M12.1214 4.92538C12.0459 4.88343 11.9541 4.88343 11.8786 4.92538L3.36422 9.65558C3.00213 9.85674 2.54553 9.72628 2.34437 9.36419C2.14321 9.00211 2.27366 8.5455 2.63575 8.34434L11.1501 3.61415C11.6787 3.32051 12.3213 3.32051 12.8499 3.61415L21.3642 8.34434C21.7263 8.5455 21.8568 9.00211 21.6556 9.36419C21.4544 9.72628 20.9978 9.85674 20.6358 9.65558L12.1214 4.92538ZM9.24998 8.99996C9.24998 8.58575 9.58577 8.24996 9.99998 8.24996H14C14.4142 8.24996 14.75 8.58575 14.75 8.99996C14.75 9.41418 14.4142 9.74996 14 9.74996H9.99998C9.58577 9.74996 9.24998 9.41418 9.24998 8.99996ZM5.99999 11.25C6.4142 11.25 6.74999 11.5857 6.74999 12V17C6.74999 17.4142 6.4142 17.75 5.99999 17.75C5.58578 17.75 5.24999 17.4142 5.24999 17V12C5.24999 11.5857 5.58578 11.25 5.99999 11.25ZM9.99999 11.25C10.4142 11.25 10.75 11.5857 10.75 12V17C10.75 17.4142 10.4142 17.75 9.99999 17.75C9.58578 17.75 9.24999 17.4142 9.24999 17V12C9.24999 11.5857 9.58578 11.25 9.99999 11.25ZM14 11.25C14.4142 11.25 14.75 11.5857 14.75 12V17C14.75 17.4142 14.4142 17.75 14 17.75C13.5858 17.75 13.25 17.4142 13.25 17V12C13.25 11.5857 13.5858 11.25 14 11.25ZM18 11.25C18.4142 11.25 18.75 11.5857 18.75 12V17C18.75 17.4142 18.4142 17.75 18 17.75C17.5858 17.75 17.25 17.4142 17.25 17V12C17.25 11.5857 17.5858 11.25 18 11.25ZM4.24999 20C4.24999 19.5857 4.58578 19.25 4.99999 19.25H19C19.4142 19.25 19.75 19.5857 19.75 20C19.75 20.4142 19.4142 20.75 19 20.75H4.99999C4.58578 20.75 4.24999 20.4142 4.24999 20Z" fill="black"/>
</svg>
